X:1
T:The Dog Wrestler Waltz
T:The Dog Wrestler Waltz
T:Exurb1a Arranged by: FerretFire 
C:Exurb1a
%%score 1 2
L:1/8
Q:1/4=55
M:4/4
K:Eb
V:1 treble nm="Violin" snm="Vln."
V:2 alto nm="Viola" snm="Vla."
V:1
!mp! e3 e/f/ g2 b2 | d2 d'2 c'2 a2 | E3 E/F/ G2 B2 | D2 d2 c2 A2- | A2 z2 z4 | %5
[M:3/4][Q:1/4=190]!mf! G6- | G4 FE | D4 E2 | C4 G,2 | B,6- | B,4 CB, | A,6- | A,4 GA | GF E4- | %14
 E4 EF | G6- | G4 c2 | B6 | b4 a2 | f6- | f6 | g6- | g4 fe | d4 e2 | c4 G2 | B6- | B4 cB | A6- | %28
 A4 GA | GF E4- | E4 EF | G6 | A4 B2 | G4 F2- | F4 FG | A6 | F6 | A,6- | A,6 |:!f! gf ec ec | %40
 gf ec ec | gf Bc Bc | gf Bc Bc | fe Bc Bc | fe Bc Bc | a6 | a6 :| a6 | a2 b2 ba | g2 e4- | e6 | %51
 a6 | a2 b3 a | c'6- | c'6 | a6 | a2 b2 a2 | e4 ef | d4 de | c6- | c6 |!mf! E4 EF | D4 DE | C6- | %64
 C6 | z6 | z6 | z6 | z6 | z6 | z6 | z6 | z6 | z6 | z6 | z6 | z6 |!mp! gf ec ec | gf ec ec | %79
 gf Bc Bc | gf Bc Bc | fe Bc Bc | fe Bc Bc | ce ge ge | ce ge ge |!mp! gf ec ec | gf ec ec | %87
 gf Bc Bc | gf Bc Bc | fe Bc Bc | fe Bc Bc | ce ge ge | ce ge ge | A6 | F6 |!mf! c'6- | c'4 ba | %97
 g4 ag | f4 g2 | a6- | a4 ba | g6 | f4 ed | ed c4 | e'6 | b6- | b4 ag | f6- | f4 g2 | a6 | f6 | %111
 A6 | z6 |!f! G6- | G4 FE | D4 E2 | C4 G,2 | B,6- | B,4 CB, | A,6- | A,4 GA | GF E4- | E2 EF EF | %123
 G6 | B4 c2 | B4 A2- | A4 GA | G6 | F6 | c6 | f6 | c'6- | c'6 | z6 | z6 |] %135
V:2
 z8 | z8 |!p! E,3 E,/F,/ G,2 B,2 | D,2 D2 C2 A,2- | A,2 z2 z4 |[M:3/4]!mp! C2 G2 G2 | C2 G2 G2 | %7
 E2 B2 B2 | E2 B2 B2 | B,2 F2 F2 | B,2 F2 F2 | F,2 C2 C2 | F,2 C2 C2 | C,2 G,2 G,2 | C,2 G,2 G,2 | %15
 E,2 B,2 B,2 | E,2 B,2 B,2 | B,2 F2 F2 | B,2 F2 F2 | F,2 C2 C2 | F,2 C2 C2 | C2 G2 G2 | C2 G2 G2 | %23
 E2 B2 B2 | E2 B2 B2 | B,2 F2 F2 | B,2 F2 F2 | F,2 C2 C2 | F,2 C2 C2 | C,2 G,2 G,2 | C,2 G,2 G,2 | %31
 E,2 B,2 B,2 | E,2 B,2 B,2 | B,2 F2 F2 | B,2 F2 F2 | F,2 C2 C2 | F,2 C2 C2 | F,2 C2 C2 | %38
 F,2 C2 C2 |:!mf! C6 | C6 | E6 | E6 | B,6 | B,6 | F,2 C2 C2 | F,2 C2 C2 :| A,2 E2 E2 | A,2 E2 E2 | %49
 E,2 B,2 B,2 | E,2 B,2 B,2 | B,2 F2 F2 | B,2 F2 F2 | C,2 G,2 G,2 | C,2 G,2 G,2 | F2 c2 c2 | %56
 F2 c2 c2 | C2 G2 G2 | C2 G2 G2 | F,2 C2 C2 | F,2 C2 C2 |!mp! C,2 G,2 G,2 | C,2 G,2 G,2 | %63
 F,2 C2 C2 | F,2 C2 C2 |!f! E,4 E,F, | D,4 D,E, | C,6- | C,6 | C,2 E,2 G,2 | G,6 | G,6 | =B,6 | %73
 D6 | F6 | G6- | !fermata!G6 | c6- | c4 BA | G4 AG | F4 G2 | A6- | A4 BA | G6 | F4 ED | ED C4 | %86
 e6 | B6- | B4 AG | F6- | F4 G2 | A6 | F6 | A,6 | F,6 | c6- | c4 BA | G4 AG | F4 G2 | A6- | A4 BA | %101
 G6 | F4 ED | ED C4 | e6 | B6- | B4 AG | F6- | F4 G2 | A6 | F6 | A,6 | z6 |!mf! C2 G2 G2 | %114
 C2 G2 G2 | E2 B2 B2 | E2 B2 B2 | B,2 F2 F2 | B,2 F2 F2 | F,2 C2 C2 | F,2 C2 C2 | C,2 G,2 G,2 | %122
 C,2 G,2 G,2 | E,2 B,2 B,2 | E,2 B,2 B,2 | B,2 F2 F2 | B,2 F2 F2 | F,2 C2 C2 | F,2 C2 C2 | %129
 F,2 C2 C2 | F,2 C2 C2 | F,6- | F,6 | z6 | z6 |] %135

